X:1
T:Title
%%score { ( 1 3 ) | ( 2 4 ) }
L:1/8
Q:1/4=118
M:4/4
K:Bb
V:1 treble nm="Grand Piano"
V:3 treble 
V:2 bass 
V:4 bass 
V:1
 [DF]4 [B,D]2 [DF]2 | [DB]2 [Ge]2 [Fd]4 | c4 d2 c2 | [DB]6 z2 | [DF]4 [B,D]2 [DF]2 | %5
w: W.~Y.~Foote * *|||||
 [DB]2 [Ge]2 [Fd]4 | c2 A2 [=EB]2 [EG]2 | F6 z2 | F4 A2 c2 | B2 c2 d4 | e2 e2 d2 B2 | c6 z2 | %12
w: |||||||
 [FB]2 [Fd]2 [Fd]4 | [EG]2 [Gc]2 [Gc]4 | B3 B d2 c2 |[M:3/4] [DB]6 |[M:1/4] z2 | %17
w: |||||
[M:4/4] [DB]6 [Ec]2 | [Fd]2 [Ec]2 [DB]4 | [EG]2 [=Ec]2 [Ec]2 [EB]2 | [FA]6 z2 | [DB]2 [Fd]2 [Fd]4 | %22
w: |||||
 [Gc]2 [Gd]2 [Ge]4 | d2 c2 B2 A2 | [DB]6 z2 |] %25
w: |||
V:2
 [B,,B,]4 [B,,F,]2 [B,,B,]2 | [B,,F,]2 [B,,G,]2 [B,,B,]4 | [F,A,F]4 [F,B,F]2 [F,A,E]2 | %3
 [B,,B,]6 z2 | [B,,B,]4 [B,,F,]2 [B,,B,]2 | [B,,F,]2 [B,,G,]2 [B,,B,]4 | [C,A,]4 [C,G,]2 [C,B,]2 | %7
 [F,A,]6 z2 | [F,A,]4[K:treble] [F,CF]2 [F,EF]2 | [B,DF]2 [A,CF]2 [_A,B,F]4 | %10
 E2 E2 [F,B,F]2 [G,B,=E]2 | [F,A,F]6 z2 | [B,,B,]2 [B,,B,]2 [B,,B,]4 | [E,B,]2 [E,E]2 [E,E]4 | %14
 [F,DF]3 [F,DF] [F,B,F]2 [F,A,E]2 |[M:3/4] [B,,B,]6 |[M:1/4] [F,F]2 |[M:4/4] [B,,B,]6 [B,,B,]2 | %18
 [F,B,]2 [F,A,]2 [B,,B,]4 | [E,B,]2 [C,C]2 [C,C]2 [C,C]2 | [F,C]6 z2 | [B,,B,]2 [B,,B,]2 [B,,B,]4 | %22
 [E,B,]2 [D,=B,]2 [C,C]4 | [B,F]2 z2 z4 | [B,,B,]6 z2 |] %25
V:3
 x8 | x8 | x8 | x8 | x8 | x8 | F4 z4 | x8 | x8 | x8 | x8 | x8 | x8 | x8 | x8 |[M:3/4] x6 | %16
[M:1/4] x2 |[M:4/4] x8 | x8 | x8 | x8 | x8 | x8 | x8 | x8 |] %25
V:4
 x8 | x8 | x8 | x8 | x8 | x8 | x8 | x8 | x4[K:treble] x4 | x8 | [G,B,]4 z4 | x8 | x8 | x8 | x8 | %15
[M:3/4] x6 |[M:1/4] x2 |[M:4/4] x8 | x8 | x8 | x8 | x8 | x8 | F,2- [F,A,E]2 [F,B,D]2 [F,CE]2 | %24
 x8 |] %25

